actions/symbolic/go-home-symbolic.svg

<?xml version="1.0" encoding="UTF-8" standalone="no"?>
<!-- Created with Inkscape (http://www.inkscape.org/) -->

<svg
   xmlns:dc="http://purl.org/dc/elements/1.1/"
   xmlns:cc="http://creativecommons.org/ns#"
   xmlns:rdf="http://www.w3.org/1999/02/22-rdf-syntax-ns#"
   xmlns:svg="http://www.w3.org/2000/svg"
   xmlns="http://www.w3.org/2000/svg"
   xmlns:inkscape="http://www.inkscape.org/namespaces/inkscape"
   version="1.1"
   width="16"
   height="16"
   id="svg3814">
  <defs
     id="defs3816" />
  <metadata
     id="metadata3819">
    <rdf:RDF>
      <cc:Work
         rdf:about="">
        <dc:format>image/svg+xml</dc:format>
        <dc:type
           rdf:resource="http://purl.org/dc/dcmitype/StillImage" />
        <dc:title />
      </cc:Work>
    </rdf:RDF>
  </metadata>
  <path
     d="M 8,1 0.25,8.75 1.75,10.25 3,9 l 0,6 4,0 0,-3 c 0,-0.554 0.446,-1 1,-1 0.554,0 1,0.446 1,1 l 0,3 4,0 0,-6 1.25,1.25 1.5,-1.5 L 8,1 z m 3,1 0,0.75 2,2 L 13,2 11,2 z"
     inkscape:connector-curvature="0"
     id="path2998"
     style="fill:#bebebe;fill-opacity:1;stroke:none" />
</svg>

<?xml version="1.0" encoding="UTF-8" standalone="no"?>
<!-- Created with Inkscape (http://www.inkscape.org/) -->

<svg
   xmlns:dc="http://purl.org/dc/elements/1.1/"
   xmlns:cc="http://creativecommons.org/ns#"
   xmlns:rdf="http://www.w3.org/1999/02/22-rdf-syntax-ns#"
   xmlns:svg="http://www.w3.org/2000/svg"
   xmlns="http://www.w3.org/2000/svg"
   xmlns:sodipodi="http://sodipodi.sourceforge.net/DTD/sodipodi-0.dtd"
   xmlns:inkscape="http://www.inkscape.org/namespaces/inkscape"
   version="1.1"
   width="16"
   height="16"
   id="svg3814"
   inkscape:version="0.48.3.1 r9886"
   sodipodi:docname="go-home-symbolic.svg">
  <sodipodi:namedview
     pagecolor="#ffffff"
     bordercolor="#666666"
     borderopacity="1"
     objecttolerance="10"
     gridtolerance="10"
     guidetolerance="10"
     inkscape:pageopacity="0"
     inkscape:pageshadow="2"
     inkscape:window-width="1280"
     inkscape:window-height="752"
     id="namedview7"
     showgrid="true"
     inkscape:zoom="24.660349"
     inkscape:cx="8"
     inkscape:cy="8"
     inkscape:window-x="0"
     inkscape:window-y="26"
     inkscape:window-maximized="1"
     inkscape:current-layer="svg3814"
     showguides="true"
     inkscape:guide-bbox="true">
    <inkscape:grid
       type="xygrid"
       id="grid2984" />
  </sodipodi:namedview>
  <defs
     id="defs3816" />
  <metadata
     id="metadata3819">
    <rdf:RDF>
      <cc:Work
         rdf:about="">
        <dc:format>image/svg+xml</dc:format>
        <dc:type
           rdf:resource="http://purl.org/dc/dcmitype/StillImage" />
        <dc:title />
      </cc:Work>
    </rdf:RDF>
  </metadata>
  <path
     style="fill:#bebebe;fill-opacity:1;stroke:none"
     d="M 8 1 L 0.25 8.75 L 1.75 10.25 L 3 9 L 3 15 L 7 15 L 7 12 C 7 11.446 7.446 11 8 11 C 8.554 11 9 11.446 9 12 L 9 15 L 13 15 L 13 9 L 14.25 10.25 L 15.75 8.75 L 8 1 z M 11 2 L 11 2.75 L 13 4.75 L 13 2 L 11 2 z "
     id="path2998" />
</svg>
